src/16/actions/help-contents.svg

<svg xmlns="http://www.w3.org/2000/svg" width="16" height="16" viewBox="0 0 16 16">
 <defs>
  <style id="current-color-scheme" type="text/css">
   .ColorScheme-Text { color:#565656; } .ColorScheme-Highlight { color:#5294e2; }
  </style>
 </defs>
 <path style="fill:currentColor" class="ColorScheme-Text" d="M 8 1 C 5.79 1 4 2.79 4 5 L 6 5 C 6 3.9 6.9 3 8 3 C 9.1 3 10 3.9 10 5 C 10 5.55 9.7801563 6.0501562 9.4101562 6.4101562 L 8.1699219 7.6699219 C 7.4499219 8.3999219 7 9.4 7 10.5 L 7 11 L 9 11 C 9 9.5 9.4499219 8.8999219 10.169922 8.1699219 L 11.070312 7.25 C 11.640312 6.68 12 5.88 12 5 C 12 2.79 10.21 1 8 1 z M 7 13 L 7 15 L 9 15 L 9 13 L 7 13 z"/>
</svg>

<svg xmlns="http://www.w3.org/2000/svg" width="16" height="16"><defs><style id="current-color-scheme" type="text/css"></style></defs><path d="M8 1C5.79 1 4 2.79 4 5h2c0-1.1.9-2 2-2s2 .9 2 2c0 .55-.22 1.05-.59 1.41L8.17 7.67C7.45 8.4 7 9.4 7 10.5v.5h2c0-1.5.45-2.1 1.17-2.83l.9-.92c.57-.57.93-1.37.93-2.25 0-2.21-1.79-4-4-4zM7 13v2h2v-2H7z" fill="currentColor" color="#565656"/></svg>
